assets/icons/search.svg

<?xml version="1.0" encoding="UTF-8" standalone="no"?>
<svg
   width="19.999975"
   height="19.999874"
   viewBox="0 0 19.999975 19.999874"
   fill="none"
   version="1.1"
   id="svg1907"
   sodipodi:docname="search.svg"
   inkscape:version="1.2.2 (b0a84865, 2022-12-01)"
   xmlns:inkscape="http://www.inkscape.org/namespaces/inkscape"
   xmlns:sodipodi="http://sodipodi.sourceforge.net/DTD/sodipodi-0.dtd"
   xmlns="http://www.w3.org/2000/svg"
   xmlns:svg="http://www.w3.org/2000/svg">
  <defs
     id="defs1911" />
  <sodipodi:namedview
     id="namedview1909"
     pagecolor="#505050"
     bordercolor="#eeeeee"
     borderopacity="1"
     inkscape:showpageshadow="0"
     inkscape:pageopacity="0"
     inkscape:pagecheckerboard="0"
     inkscape:deskcolor="#505050"
     showgrid="false"
     inkscape:zoom="9.8333333"
     inkscape:cx="9.9661017"
     inkscape:cy="9.9661017"
     inkscape:window-width="1309"
     inkscape:window-height="456"
     inkscape:window-x="0"
     inkscape:window-y="25"
     inkscape:window-maximized="0"
     inkscape:current-layer="svg1907" />
  <g
     id="search"
     transform="translate(-2,-2)">
    <path
       id="Vector (Stroke)"
       fill-rule="evenodd"
       clip-rule="evenodd"
       d="m 11,4 c -3.86599,0 -7,3.13401 -7,7 0,3.866 3.13401,7 7,7 3.866,0 7,-3.134 7,-7 0,-3.86599 -3.134,-7 -7,-7 z m -9,7 c 0,-4.97056 4.02944,-9 9,-9 4.9706,0 9,4.02944 9,9 0,4.9706 -4.0294,9 -9,9 -4.97056,0 -9,-4.0294 -9,-9 z"
       fill="#ffffff" />
    <path
       id="Vector (Stroke)_2"
       fill-rule="evenodd"
       clip-rule="evenodd"
       d="m 15.9429,15.9428 c 0.3905,-0.3905 1.0237,-0.3905 1.4142,0 l 4.35,4.35 c 0.3905,0.3905 0.3905,1.0237 0,1.4142 -0.3905,0.3905 -1.0237,0.3905 -1.4142,0 l -4.35,-4.35 c -0.3905,-0.3905 -0.3905,-1.0237 0,-1.4142 z"
       fill="#ffffff" />
  </g>
</svg>

<svg width="24" height="24" viewBox="0 0 24 24" fill="none" xmlns="http://www.w3.org/2000/svg">
<g id="search">
<path id="Vector (Stroke)" fill-rule="evenodd" clip-rule="evenodd" d="M11 4C7.13401 4 4 7.13401 4 11C4 14.866 7.13401 18 11 18C14.866 18 18 14.866 18 11C18 7.13401 14.866 4 11 4ZM2 11C2 6.02944 6.02944 2 11 2C15.9706 2 20 6.02944 20 11C20 15.9706 15.9706 20 11 20C6.02944 20 2 15.9706 2 11Z" fill="white"/>
<path id="Vector (Stroke)_2" fill-rule="evenodd" clip-rule="evenodd" d="M15.9429 15.9428C16.3334 15.5523 16.9666 15.5523 17.3571 15.9428L21.7071 20.2928C22.0976 20.6833 22.0976 21.3165 21.7071 21.707C21.3166 22.0975 20.6834 22.0975 20.2929 21.707L15.9429 17.357C15.5524 16.9665 15.5524 16.3333 15.9429 15.9428Z" fill="white"/>
</g>
</svg>
